X: 91
T: No_29_Song_When_Restoring_a_Boy_to_Life.krn
N: Derived from No_29_Song_When_Restoring_a_Boy_to_Life.krn
%%abc-version 2.0
%%abcx-abcm2ps-target-version 5.9.1 (29 Sep 2008)
%%abc-creator hum2abc beta
%%abcx-conversion-date 2019/03/15 08:37:56
%%humdrum-veritas 3640458708
%%humdrum-veritas-data 2566401386
%%linebreak <none>
%%barnumbers 0
L: 1/16
M: 2/4
K: A clef=bass
F, [I:setbarnb 1]| 
C3A, A,3G, | 
A,3G, G,F,F,2 | 
G,F,F,2 F,2C,C, | 
F,2F,3/F,/ F,3F, | 
F,3F, F,2C,C, | 
F,2F,3/F,/ F,3F, ||  
[M:3/4]F,3F,F,4z4 ||  
[M:2/4]C3A, A,3G, | 
A,3G, G,F,F,2 | 
G,F,F,2 F,2C,C, | 
F,2F,3/F,/ F,3F, | 
F,3F, F,2C,C, | 
F,2F,3/F,/ F,3F, ||  
[M:3/4]F,3F,F,4z4 | 
[M:2/4]A,3A, A,3G, [I:setbarnb 16]| 
A,3A, G,3/F,/F,2 | 
G,3/F,/F,2 F,2C,C, | 
F,2F,3/F,/ F,3F, | 
F,3F, F,2 z2 | 
F,2F,3/F,/ F,3F, | 
F,3F, F,2 z2 :|]  



